src/icons/icons_set_01/043-phone.svg

<svg height="50" viewBox="0 0 50 50" width="50" xmlns="http://www.w3.org/2000/svg"><g fill="#000" fill-rule="nonzero"><path d="m41.8077931 35.9827233v-.843357l2 .0003961c.919035.8963008 1.0989363 2.2458902.539069 3.3199608l-1.9355692-1.888253-.6034998-.588571-6.5481032-6.3882066c-.1780514-.1737087-.4125676-.2683956-.6752731-.2683956-.2627161 0-.496694.0945822-.6749307.2688536l-4.6858243 4.57113-.103788.0730586c-1.2655394 1.068715-3.5255187.8152103-5.5686418-1.1780321l-.0188807-.0178128c-.0092192-.0086995-.0092192-.0086995-.0430931-.0410608-2.0811984-2.0321131-3.1536511-3.0751169-3.2015628-3.119332-.1090371-.103783-1.0358532-1.0056233-3.2546247-3.1702786-1.9566203-1.9075129-2.2974489-3.89221-1.4078498-5.3395487l.1297317-.2110679.1773122-.1730328 4.6473954-4.5352324c.1689698-.1648486.2548061-.3669419.2548061-.5890302 0-.2221754-.0859214-.4245398-.254522-.589149l-7.1499588-6.97675991c-.3670194-.35717825-.9872072-.35701457-1.3522683-.0006042l-4.91447805 4.79500161-.01347175.0240637c-2.07883123 3.5003196-1.2659513 7.9004503 1.83297293 12.8624821 1.17578167 1.8826745 2.60541667 3.7162443 4.16434217 5.4347154.5781643.6373355 1.1434799 1.2245396 1.6802247 1.7540024.3687265.363724.6787761.6559984.9127811.8678489l.1395719.1394888c.4507293.4972696 1.1072885 1.1727684 1.936457 1.9554909 1.2568088 1.1864084 2.6224704 2.3421177 4.0616207 3.3963162 3.8567138 2.8250989 7.6175965 4.4726068 10.9365043 4.4721526 1.5176442 0 2.9263504-.34617 4.2403185-1.0719016l.1010905-.0497703 5.2556952-5.1267211c.3378636-.3300919.3376832-.8507151.0000534-1.1799929zm0-.843357 2 .0003961c1.1419109 1.1136633 1.1427227 2.9271287.0012178 4.0423762l-5.2995545 5.169505c-.1420792.1386138-.3077029.2487128-.4879406.3271287-1.6850594.930693-3.443594 1.3211881-5.207 1.3211881-8.6822574.0011881-17.4952277-9.4641584-18.4167128-10.4807921-1.2283763-1.1120792-14.74619805-13.6930693-8.96763369-23.4229703.07509901-.1425742.17374257-.2760396.29633663-.3952475l4.95450496-4.83405941c1.141099-1.11405941 2.999901-1.11445545 4.1438416-.00118812l7.1518614 6.97861383c.5528911.539802.8577524 1.2574258.8577524 2.0205941s-.3048613 1.4807921-.8581584 2.0205941l-4.6472079 4.5350495c-.1404554.2285148-.5784653 1.2237623 1.100099 2.860198 2.8967921 2.8261386 3.2207327 3.1378218 3.2373762 3.1536633.0040595.0035644.2683268.2550495 3.2199208 3.1370297.0121783.0114852.0247624.0233664.0369406.0348515 1.8628614 1.8170297 2.9150594 1.0974258 2.9243961 1.0887129.0304455-.0253465.0617029-.0495049.0937723-.0720792l4.571297-4.4594059c.5516732-.539406 1.2880495-.8372278 2.0715148-.8372278.7822476 0 1.5186238.2970297 2.0719208.8368317l7.1510495 6.9762376z"/><path d="m40 21h-2c0-4.9705627-4.0294373-9-9-9v-2c6.0751322 0 11 4.9248678 11 11z"/><path d="m45 21h-2c0-7.7319865-6.2680135-14-14-14v-2c8.836556 0 16 7.163444 16 16z"/></g></svg>

<?xml version="1.0" encoding="UTF-8"?>
<svg width="50px" height="50px" viewBox="0 0 50 50" version="1.1" xmlns="http://www.w3.org/2000/svg" xmlns:xlink="http://www.w3.org/1999/xlink">
    <!-- Generator: Sketch 52.2 (67145) - http://www.bohemiancoding.com/sketch -->
    <title>043-phone</title>
    <desc>Created with Sketch.</desc>
    <g id="043-phone" stroke="none" stroke-width="1" fill="none" fill-rule="evenodd">
        <path d="M41.8077931,35.9827233 L41.8077931,35.1393663 L43.8077931,35.1397624 C44.7268281,36.0360632 44.9067294,37.3856526 44.3468621,38.4597232 L42.4112929,36.5714702 L41.8077931,35.9828992 L35.2596899,29.5946926 C35.0816385,29.4209839 34.8471223,29.326297 34.5844168,29.326297 C34.3217007,29.326297 34.0877228,29.4208792 33.9094861,29.5951506 L29.2236618,34.1662806 L29.1198738,34.2393392 C27.8543344,35.3080542 25.5943551,35.0545495 23.551232,33.0613071 L23.5323513,33.0434943 C23.5231321,33.0347948 23.5231321,33.0347948 23.4892582,33.0024335 C21.4080598,30.9703204 20.3356071,29.9273166 20.2876954,29.8831015 C20.1786583,29.7793185 19.2518422,28.8774782 17.0330707,26.7128229 C15.0764504,24.80531 14.7356218,22.8206129 15.6252209,21.3732742 L15.7549526,21.1622063 L15.9322648,20.9891735 L20.5796602,16.4539411 C20.74863,16.2890925 20.8344663,16.0869992 20.8344663,15.8649109 C20.8344663,15.6427355 20.7485449,15.4403711 20.5799443,15.2757619 L13.4299855,8.29900199 C13.0629661,7.94182374 12.4427783,7.94198742 12.0777172,8.29839779 L7.16323915,13.0933994 L7.1497674,13.1174631 C5.07093617,16.6177827 5.8838161,21.0179134 8.98274033,25.9799452 C10.158522,27.8626197 11.588157,29.6961895 13.1470825,31.4146606 C13.7252468,32.0519961 14.2905624,32.6392002 14.8273072,33.168663 C15.1960337,33.532387 15.5060833,33.8246614 15.7400883,34.0365119 L15.8796602,34.1760007 C16.3303895,34.6732703 16.9869487,35.3487691 17.8161172,36.1314916 C19.072926,37.3179 20.4385876,38.4736093 21.8777379,39.5278078 C25.7344517,42.3529067 29.4953344,44.0004146 32.8142422,43.9999604 C34.3318864,43.9999604 35.7405926,43.6537904 37.0545607,42.9280588 L37.1556512,42.8782885 L42.4113464,37.7515674 C42.74921,37.4214755 42.7490296,36.9008523 42.4113998,36.5715745 L41.8077931,35.9827233 Z M41.8077931,35.1393663 L43.8077931,35.1397624 C44.949704,36.2534257 44.9505158,38.0668911 43.8090109,39.1821386 L38.5094564,44.3516436 C38.3673772,44.4902574 38.2017535,44.6003564 38.0215158,44.6787723 C36.3364564,45.6094653 34.5779218,45.9999604 32.8145158,45.9999604 C24.1322584,46.0011485 15.3192881,36.535802 14.397803,35.5191683 C13.1694267,34.4070891 -0.34839505,21.826099 5.43016931,12.096198 C5.50526832,11.9536238 5.60391188,11.8201584 5.72650594,11.7009505 L10.6810109,6.86689109 C11.8221099,5.75283168 13.6809119,5.75243564 14.8248525,6.86570297 L21.9767139,13.8443168 C22.529605,14.3841188 22.8344663,15.1017426 22.8344663,15.8649109 C22.8344663,16.6280792 22.529605,17.345703 21.9763079,17.885505 L17.3291,22.4205545 C17.1886446,22.6490693 16.7506347,23.6443168 18.429199,25.2807525 C21.3259911,28.1068911 21.6499317,28.4185743 21.6665752,28.4344158 C21.6706347,28.4379802 21.934902,28.6894653 24.886496,31.5714455 C24.8986743,31.5829307 24.9112584,31.5948119 24.9234366,31.606297 C26.786298,33.4233267 27.838496,32.7037228 27.8478327,32.6950099 C27.8782782,32.6696634 27.9095356,32.645505 27.941605,32.6229307 L32.512902,28.1635248 C33.0645752,27.6241188 33.8009515,27.326297 34.5844168,27.326297 C35.3666644,27.326297 36.1030406,27.6233267 36.6563376,28.1631287 L43.8073871,35.1393663 L41.8077931,35.1393663 Z" id="Path" fill="#000000" fill-rule="nonzero"></path>
        <path d="M40,21 L38,21 C38,16.0294373 33.9705627,12 29,12 L29,10 C35.0751322,10 40,14.9248678 40,21 Z" id="Shape" fill="#000000" fill-rule="nonzero"></path>
        <path d="M45,21 L43,21 C43,13.2680135 36.7319865,7 29,7 L29,5 C37.836556,5 45,12.163444 45,21 Z" id="Shape" fill="#000000" fill-rule="nonzero"></path>
    </g>
</svg>
